X: 30508
T: Oliver Trembalay's
R: reel
M: 4/4
K: Aminor
AB|:cBcd cBce|aefa e2AB|cBcd cBce|aefa e2ab|
c'eac' be^gb|a^gaf edcB|ceae dfed|1 ceBe A2AB:|2 ceBe A2ab||
[K: A]
|:c'aea c'aea|d'ac'a b2bc'|d'beb d'beb|e'bd'b c'aab|
c'aea c'aea|d'ac'a b2ef|gbeg bged|1 =ceBe A2ab:|2 =ceBe A4||

